X:1
T:[ID 1-96]
T:[ID 1-96]
T:Bezeichnung standardisiert: Schuster-Tanz; Schuster Sesken In anderer Quelle: Schuster-Tanz - Tanzbuch aus Arendsee (Anm. S. Wascher);  Schuster-Tanz - Notenbuch Schroeder (Anm. S. Wascher);
T:Urheber unbekannt Datum in der hier transkribierten schriftlichen Quelle: vermutlich vor 1767
C:Urheber unbekannt
C:Datum in der hier transkribierten schriftlichen Quelle: vermutlich vor 1767
L:1/8
M:2/2
K:D
V:1 treble 
V:1
 d2 d2 d2 d2 | cdec A4 | _f2 f2 f2 f2 | efge c4 | _f2 c2 f2 c2 | f2 fg a4 | a2 ga"^\202" bagf | %7
 e4 d4 :: d2 dd dddd | (6:5:1c6 B A2 | _f2 ff ffff | (6:5:1e6 d c2 | _f2 c2 f2 c2 | f2 fg a4 | %14
 a2 ga"^\202" bagf | e4 d4 :| %16

